icons/evolvere-blue-folders-flat-vivid-dark-fallback/apps/64/bluefish.svg

<?xml version="1.0" encoding="UTF-8" standalone="no"?>
<!-- Created with Inkscape (http://www.inkscape.org/) -->

<svg
   xmlns:dc="http://purl.org/dc/elements/1.1/"
   xmlns:cc="http://creativecommons.org/ns#"
   xmlns:rdf="http://www.w3.org/1999/02/22-rdf-syntax-ns#"
   xmlns:svg="http://www.w3.org/2000/svg"
   xmlns="http://www.w3.org/2000/svg"
   xmlns:sodipodi="http://sodipodi.sourceforge.net/DTD/sodipodi-0.dtd"
   xmlns:inkscape="http://www.inkscape.org/namespaces/inkscape"
   width="64"
   height="64"
   id="svg13094"
   version="1.1"
   inkscape:version="0.91+devel r"
   sodipodi:docname="bluefish.svg">
  <sodipodi:namedview
     id="base"
     pagecolor="#ffffff"
     bordercolor="#666666"
     borderopacity="1.0"
     inkscape:pageopacity="0"
     inkscape:pageshadow="2"
     inkscape:zoom="11.313709"
     inkscape:cx="32.667325"
     inkscape:cy="30.30768"
     inkscape:document-units="px"
     inkscape:current-layer="g2335"
     showgrid="false"
     inkscape:snap-bbox="true"
     inkscape:bbox-paths="true"
     inkscape:bbox-nodes="true"
     inkscape:snap-bbox-edge-midpoints="true"
     inkscape:snap-bbox-midpoints="true"
     inkscape:object-paths="true"
     inkscape:snap-intersection-paths="true"
     inkscape:object-nodes="true"
     inkscape:snap-smooth-nodes="true"
     inkscape:snap-midpoints="true"
     inkscape:snap-object-midpoints="true"
     inkscape:snap-center="true"
     showguides="true"
     inkscape:guide-bbox="true"
     inkscape:window-width="1920"
     inkscape:window-height="1023"
     inkscape:window-x="-10"
     inkscape:window-y="35"
     inkscape:window-maximized="1"
     inkscape:snap-global="false"
     fit-margin-top="0"
     fit-margin-left="0"
     fit-margin-right="0"
     fit-margin-bottom="0"
     showborder="true"
     inkscape:showpageshadow="false"
     inkscape:snap-page="true">
    <inkscape:grid
       type="xygrid"
       id="grid3075"
       empspacing="5"
       visible="true"
       enabled="true"
       snapvisiblegridlinesonly="true"
       originx="1.6362304e-08px"
       originy="18px" />
  </sodipodi:namedview>
  <defs
     id="defs13096" />
  <metadata
     id="metadata13099">
    <rdf:RDF>
      <cc:Work
         rdf:about="">
        <dc:format>image/svg+xml</dc:format>
        <dc:type
           rdf:resource="http://purl.org/dc/dcmitype/StillImage" />
        <dc:title></dc:title>
      </cc:Work>
    </rdf:RDF>
  </metadata>
  <path
     style="color:#000000;fill:#e9c32f;fill-opacity:1;fill-rule:nonzero;stroke:none;stroke-width:2.28571415;marker:none;visibility:visible;display:inline;overflow:visible;enable-background:accumulate"
     d="M 0 4 L 0 34 L 0 62 L 2 64 L 32 64 L 62 64 L 64 62 L 64 34 L 64 4 L 32 4 L 0 4 z "
     id="path6498" />
  <path
     style="color:#000000;fill:#ffe962;fill-opacity:1;fill-rule:nonzero;stroke:none;marker:none;visibility:visible;display:inline;overflow:visible;enable-background:accumulate;stroke-width:2.28571415"
     d="M 2 0 L 0 1 L 0 4 L 32 4 L 64 4 L 64 1 L 62 0 L 32 0 L 2 0 z "
     id="path6502" />
  <path
     style="fill:#fff36c;fill-opacity:1;fill-rule:nonzero"
     d="M 0,3 0,6 2,4 Z"
     id="path4298"
     inkscape:connector-curvature="0"
     sodipodi:nodetypes="cccc" />
  <path
     d="M 64,6 62,4 64,3 z"
     id="path3028"
     style="fill:#f3d447;fill-opacity:1"
     inkscape:connector-curvature="0" />
  <g
     id="g3043"
     inkscape:export-filename="folder.png"
     inkscape:export-xdpi="90"
     inkscape:export-ydpi="90"
     transform="translate(-0.62500009,0.082283)" />
  <g
     id="scalable"
     transform="matrix(1.0385892,0,0,1.0385892,1214.7222,1878.8121)"
     inkscape:label="#g3701"
     style="fill:#ffffff" />
  <g
     transform="matrix(1.2491073,0,0,1.2491073,-45.858255,-79.248441)"
     id="g2335">
    <path
       inkscape:connector-curvature="0"
       d="m 54.50698,85.000828 a 6.087422,7.7263191 0 0 1 -12.174844,0 6.087422,7.7263191 0 1 1 12.174844,0 z"
       id="path617"
       style="fill:#dbe5ee;fill-opacity:1" />
    <path
       inkscape:connector-curvature="0"
       d="m 55.448653,84.940033 c 0,3.590929 -7.322501,-6.314124 -13.010826,-2.973881 0,-3.59094 3.248567,-7.815779 7.896688,-7.815779 5.949183,0.185893 5.114138,7.19871 5.114138,10.78966 z"
       id="path618"
       style="fill:#599feb;fill-opacity:1" />
    <path
       inkscape:connector-curvature="0"
       d="m 74.682078,88.785421 c -0.08763,-4.205653 0.876119,-8.80571 2.891366,-13.40566 1.401921,-2.497166 3.198138,-4.599982 6.965731,-5.519929 -2.891474,5.038106 -1.708584,9.28763 -2.234277,14.194136 -0.876227,2.05901 -1.62095,3.461145 -1.971484,6.702937 0.131504,6.089504 2.102881,7.579165 4.731454,9.988605 -3.46093,0.96385 -5.870366,-1.489557 -7.885613,-2.89137 -1.051494,-3.636197 -1.445791,-5.432414 -2.497177,-9.068719 z"
       id="path619"
       style="fill:#599feb;fill-opacity:1" />
    <g
       transform="matrix(0.7726647,0,0,0.77266147,-3.3235689,68.777779)"
       id="g595">
      <path
         inkscape:connector-curvature="0"
         d="m 64.476341,21.172836 a 2.074306,2.1607211 0 1 1 -4.148612,0 2.074306,2.1607211 0 1 1 4.148612,0 z"
         transform="translate(0,-0.122253)"
         id="path596"
         style="fill:#364b67;fill-opacity:1" />
    </g>
    <path
       inkscape:connector-curvature="0"
       d="m 79.676325,91.151202 c -0.262793,6.404339 -10.63311,18.662908 -20.108598,18.531518 -8.686895,-0.1314 -16.165663,-8.57851 -16.165663,-18.662914 0,-10.084191 6.558778,-17.874117 16.034266,-18.137039 10.132685,0.131418 20.371499,14.229877 20.239995,18.268435 z"
       id="path615"
       style="fill:#397acf;fill-opacity:1" />
    <path
       inkscape:connector-curvature="0"
       d="m 70.213417,85.499866 c 2.234277,3.368888 1.483532,6.194449 0.27032,8.144965 -1.213213,1.950731 -4.601133,3.010075 -6.447457,2.895022 -6.45993,-0.394297 -5.51994,-3.25104 -5.51994,-9.200115 0,-5.948967 3.922861,-11.697076 7.62282,-11.697076 2.77997,0.657197 4.074257,3.908236 4.074257,9.857204 z"
       id="path632"
       style="fill:#002a5d;fill-opacity:0.20483005;opacity:1;stroke-width:1;stroke-linecap:butt;stroke-linejoin:miter;stroke-miterlimit:4;stroke-dasharray:none;stroke-dashoffset:0;stroke-opacity:1" />
    <path
       inkscape:connector-curvature="0"
       d="m 70.476256,89.012727 a 6.6973747,6.4043573 0 1 1 -13.394749,0 6.6973747,6.4043573 0 1 1 13.394749,0 z"
       id="path624"
       style="fill:#599feb;fill-opacity:1" />
    <path
       inkscape:connector-curvature="0"
       d="m 69.556327,87.019745 a 6.177138,6.2513182 0 0 1 -12.354276,0 6.177138,6.2513182 0 1 1 12.354276,0 z"
       id="path633"
       style="fill:#599feb;fill-opacity:1" />
    <path
       inkscape:connector-curvature="0"
       d="m 69.358399,84.540801 a 6.2845632,8.1863365 0 0 1 -12.569126,0 6.2845632,8.1863365 0 1 1 12.569126,0 z"
       id="path552"
       style="fill:#dbe5ee;fill-opacity:1" />
    <path
       inkscape:connector-curvature="0"
       d="M 69.427544,85.20288 C 68.377448,84.257578 65.1763,79.014765 56.752736,82.195773 c 0,-3.590939 1.419339,-8.7025 6.067461,-8.7025 5.949182,0.185893 6.607347,8.118657 6.607347,11.709607 z"
       id="path600"
       style="fill:#599feb;fill-opacity:1" />
    <g
       id="use2998"
       transform="matrix(0.7726647,0,0,0.77266147,17.441121,69.250795)"
       style="fill:#31445d;fill-opacity:1">
      <path
         style="fill:#364b67;fill-opacity:1"
         id="path4205"
         transform="translate(0,-0.122253)"
         d="m 64.476341,21.172836 a 2.074306,2.1607211 0 1 1 -4.148612,0 2.074306,2.1607211 0 1 1 4.148612,0 z"
         inkscape:connector-curvature="0" />
      <path
         style="fill:#dcdcdc;fill-opacity:1"
         id="path4207"
         d="m 63.957765,20.394981 a 0.777864,1.037178 0 1 1 -1.555728,0 0.777864,1.037178 0 1 1 1.555728,0 z"
         inkscape:connector-curvature="0" />
    </g>
    <path
       inkscape:connector-curvature="0"
       d="m 44.453383,99.825581 c 0.219137,0.919989 6.7467,3.679959 17.085728,-0.262901 0.416124,-0.04387 2.471478,-2.269115 2.463198,-1.830732 -0.02011,1.193965 -0.951387,2.782442 -2.163739,4.107052 -2.584918,3.15415 -7.046053,5.0836 -12.12804,4.55801 -2.453307,-0.21903 -4.346512,-1.48934 -5.485532,-3.41717 -0.973215,-1.81793 -0.341071,-2.14653 0.228385,-3.154259 z"
       id="path623"
       style="fill:#599feb;fill-opacity:1" />
    <path
       inkscape:connector-curvature="0"
       d="m 44.350205,97.872731 c 0.219138,0.91999 6.352404,4.074249 16.691431,0.131396 1.386222,-0.71182 2.337394,-0.09376 0.91999,2.102773 -2.58481,2.62857 -10.42666,3.68006 -12.879967,3.28577 -2.453306,-0.21903 -5.432306,-1.09526 -5.914236,-2.62857 -0.36462,-1.319021 0.08763,-2.146538 1.182782,-2.891369 z"
       id="path631"
       style="fill:#002a5d;fill-opacity:0.27996421" />
    <path
       inkscape:connector-curvature="0"
       d="m 44.453406,97.459843 c 0.219138,0.91999 6.016386,5.334237 17.027449,1.055472 0.735046,-0.313867 2.075354,-0.925366 2.351372,-0.879345 0.40505,0.07968 -0.512682,1.043752 -1.599337,2.142127 -2.58481,2.628463 -10.594723,3.595983 -13.04803,3.201683 -2.453306,-0.21903 -5.432306,-1.09526 -5.914236,-2.62857 -0.36462,-1.319018 0.08763,-2.146536 1.182782,-2.891367 z"
       id="path621"
       style="fill:#599feb;fill-opacity:1" />
  </g>
</svg>

<svg xmlns="http://www.w3.org/2000/svg" viewBox="0 0 64 64" xmlns:xlink="http://www.w3.org/1999/xlink"><g color="#000"><path d="m0 4v30 28l2 2h30 30l2-2v-28-30h-32-32" fill="#e9c32f"/><path d="m2 0l-2 1v3h32 32v-3l-2-1h-30-30" fill="#ffe962"/></g><path d="m0 3v3l2-2" fill="#fff36c"/><path d="m64 6l-2-2 2-1z" fill="#f3d447"/><g transform="matrix(1.24911 0 0 1.24911-45.858-79.25)"><path d="m54.50698 85.00083a6.087422 7.726319 0 0 1 -12.174844 0 6.087422 7.726319 0 1 1 12.174844 0" fill="#dbe5ee"/><g fill="#599feb"><path d="m55.45 84.94c0 3.591-7.323-6.314-13.01-2.974 0-3.591 3.249-7.816 7.897-7.816 5.949.186 5.114 7.199 5.114 10.79"/><path d="m74.68 88.79c-.088-4.206.876-8.806 2.891-13.406 1.402-2.497 3.198-4.6 6.966-5.52-2.891 5.04-1.709 9.288-2.234 14.194-.876 2.059-1.621 3.461-1.971 6.703.132 6.09 2.103 7.579 4.731 9.989-3.461.964-5.87-1.49-7.886-2.891-1.051-3.636-1.446-5.432-2.497-9.07"/></g><path d="m64.47634 21.17284a2.074306 2.160721 0 1 1 -4.148612 0 2.074306 2.160721 0 1 1 4.148612 0" transform="matrix(.77266 0 0 .77266-3.324 68.68)" fill="#364b67" id="0"/><path d="m79.68 91.15c-.263 6.404-10.633 18.663-20.11 18.532-8.687-.131-16.17-8.579-16.17-18.663 0-10.08 6.559-17.874 16.03-18.14 10.133.131 20.371 14.23 20.24 18.268" fill="#397acf"/><path d="m70.21 85.5c2.234 3.369 1.484 6.194.27 8.145-1.213 1.951-4.601 3.01-6.447 2.895-6.46-.394-5.52-3.251-5.52-9.2 0-5.949 3.923-11.697 7.623-11.697 2.78.657 4.074 3.908 4.074 9.857" fill="#002a5d" fill-opacity=".205"/><g fill="#599feb"><path d="m70.47626 89.01273a6.697375 6.404357 0 1 1 -13.394749 0 6.697375 6.404357 0 1 1 13.394749 0"/><path d="m69.55633 87.01975a6.177138 6.251318 0 0 1 -12.354276 0 6.177138 6.251318 0 1 1 12.354276 0"/></g><path d="m69.3584 84.5408a6.284563 8.186336 0 0 1 -12.569126 0 6.284563 8.186336 0 1 1 12.569126 0" fill="#dbe5ee"/><path d="m69.43 85.2c-1.05-.945-4.251-6.188-12.675-3.01 0-3.591 1.419-8.703 6.067-8.703 5.949.186 6.607 8.119 6.607 11.71" fill="#599feb"/><g transform="matrix(.77266 0 0 .77266 17.441 69.25)" fill="#31445d"><use transform="matrix(1.29423 0 0 1.29423 4.302-89.01)" xlink:href="#0"/><path d="m63.957765 20.394981a.777864 1.037178 0 1 1 -1.555728 0 .777864 1.037178 0 1 1 1.555728 0" fill="#dcdcdc"/></g><path d="m44.45 99.83c.219.92 6.747 3.68 17.09-.263.416-.044 2.471-2.269 2.463-1.831-.02 1.194-.951 2.782-2.164 4.107-2.585 3.154-7.05 5.084-12.13 4.558-2.453-.219-4.347-1.489-5.486-3.417-.973-1.818-.341-2.147.228-3.154" fill="#599feb"/><path d="m44.35 97.87c.219.92 6.352 4.074 16.691.131 1.386-.712 2.337-.094.92 2.103-2.585 2.629-10.427 3.68-12.88 3.286-2.453-.219-5.432-1.095-5.914-2.629-.365-1.319.088-2.147 1.183-2.891" fill="#002a5d" fill-opacity=".28"/><path d="m44.45 97.46c.219.92 6.02 5.334 17.03 1.055.735-.314 2.075-.925 2.351-.879.405.08-.513 1.044-1.599 2.142-2.585 2.628-10.595 3.596-13.05 3.202-2.453-.219-5.432-1.095-5.914-2.629-.365-1.319.088-2.147 1.183-2.891" fill="#599feb"/></g></svg>
